src/pos-icons/chart-bar-stacked.svg

<svg height="24" viewBox="0 0 24 24" width="24" xmlns="http://www.w3.org/2000/svg"><path d="m22 21h-20v-18h2v16h2v-2h4v2h2v-3h4v3h2v-2h4zm-4-7h4v2h-4zm-6-8h4v3h-4zm4 9h-4v-5h4zm-10-5h4v2h-4zm4 6h-4v-3h4z"/></svg>

<?xml version="1.0" encoding="UTF-8"?><!DOCTYPE svg PUBLIC "-//W3C//DTD SVG 1.1//EN" "http://www.w3.org/Graphics/SVG/1.1/DTD/svg11.dtd"><svg xmlns="http://www.w3.org/2000/svg" xmlns:xlink="http://www.w3.org/1999/xlink" version="1.1" id="mdi-chart-bar-stacked" width="24" height="24" viewBox="0 0 24 24"><path d="M22,21H2V3H4V19H6V17H10V19H12V16H16V19H18V17H22V21M18,14H22V16H18V14M12,6H16V9H12V6M16,15H12V10H16V15M6,10H10V12H6V10M10,16H6V13H10V16Z" /></svg>
